X:1
T:Will There Be Any Stars?
T:John Robson Sweney
T:Will There Be Any Stars?
T:Public Domain
T:Public Domain
C:John Robson Sweney
Z:Public Domain
%%score ( 1 2 ) ( 3 4 )
L:1/8
M:4/4
K:Bb
V:1 treble 
V:2 treble 
V:3 bass 
V:4 bass 
V:1
 [B,D][CE] | [DF]2 [_D=E][=DF] [DB]2 [Fd]>[_E_d] | [DB]2 [EA][DB] C2 C[=B,D] | %3
w: 1.~I am|think- ing to- day of that|beau- ti- ful land I shall|
w: 2.~In the|strength of the Lord let me|la- bor and pray, Let me|
w: 3.~O what|joy it will be when His|face I be- hold, Liv- ing|
 [CE]2 [EA][EG] [CF]2 [CE][A,F] | [B,D]6 [B,D][CE] | [DF]2 [_D=E][=DF] [DB]2 [Fd]>[_E_d] | %6
w: the sun goe- th down; When|through won- der-|ful grace by my Sav- ior|
w: a win- ner of souls, That|bright stars may|be mine in the glor- i-|
w: his feet to lay down! It|would sweet- en|my bliss in the ci- ty|
 [DB]2 [EA][DB] C2 C[=B,D] [CE]2 [EA][EG] [EF]2 [Ec][Fd] | [DB]6 ||"^Refrain" [Fd]>[Ec] | %9
w: I stand, Will there be an- y stars in my crown? *|||
w: ous day, When His praise like the sea bil- low rolls. *|||
w: of gold, Should there be an- y stars in my crown. *|||
 [DB]2 [Ec]>[DB] [DF]2 D>F | B2 [FB][Fc] [Fd]2 [Fd][Fe] | [Ff]2 [Bd][Ac] B2 [Ac][Bd] | %12
w: |||
w: |||
w: |||
 A2 GG [Ac]2 [Ae][Ae] | [Fd]2 [DB][DB] [Fd]2 [Fd][Fc] | [GB]2 [EG][EG] [GB]2 [_DA][DG] | %15
w: |||
w: |||
w: |||
 [DF]2 [FB][FB] [EA]2 [Ec][Fd] | D2 FE [DB]2 |] %17
w: ||
w: ||
w: ||
V:2
 x2 | x8 | x4 C2 C x | x8 | x8 | x8 | x16 | x6 || x2 | x6 D>F | B2 x6 | x4 B2 x2 | c4- x4 | x8 | %14
w: ||reach when||||||||||||
w: ||watch as||||||||||||
w: ||gems at||||||||||||
 x8 | x8 | B4- x2 |] %17
w: |||
w: |||
w: |||
V:3
 [B,,F,][B,,F,] | [B,,B,]2 [B,,B,][B,,B,] [B,,F,]2 [B,,F,]>[B,,F,] | %2
w: ~ ~|~ ~ ~ ~ ~ ~|
 [B,,F,]2 [C,F,][D,F,] [E,G,]2 [E,G,][D,G,] | [C,G,]2 F,[F,B,] [F,A,]2 [F,A,]F, | %4
w: ~ ~ ~ ~ ~ ~|~ ~ ~ ~ ~ ~|
 [B,,F,]6 [B,,F,][B,,F,] | [B,,B,]2 [B,,B,][B,,B,] [B,,F,]2 [B,,F,]>[B,,F,] | %6
w: ~ ~ ~|~ ~ ~ ~ ~ ~|
 [B,,F,]2 [C,F,][D,F,] [E,G,]2 [E,G,][D,G,] [C,G,]2 F,[F,B,] [F,A,]2 [F,A,][F,A,] | [B,,B,]6 || %8
w: ~ ~ ~ ~ ~ ~ ~ ~ ~ ~ ~ Will|be|
 [B,,B,]>[B,,F,] | [B,,F,]2 [B,,F,]>[B,,F,] .[B,,B,]2 D,>F, | B,2 [D,B,][F,A,] B,2 B,[B,C] | %11
w: an- y|stars, an- y stars in my|When at even- ing the sun|
 [B,D]2 [B,F][CF] [DF]2 [CF][B,F] | ([F,F]2 [C,=E][C,E] [F,F]2) [F,C][F,C] | %13
w: When I wake with the blest|in * * * the man-|
 [B,,B,]2 [B,,F,][B,,F,] [B,,B,]2 [D,B,][D,B,] | [E,B,]2 [E,B,][E,B,] [E,E]2 [=E,B,][E,B,] | %15
w: sions of rest Will there be|an- y stars in my crown?|
 [F,B,]2 [F,D][F,D] [F,C]2 [F,A,][F,A,] | B,2 A,G, [B,,F,]2 |] %17
w: ||
V:4
 x2 | x8 | x8 | x2 F, x3 F, x | x8 | x8 | x10 F, x5 | x6 || x2 | x6 D,3/2 x/ | B,2 B,2 B, x3 | x8 | %12
w: |||~ ~|||there|||crown|go- eth down?||
 x8 | x8 | x8 | x8 | B,,4- x2 |] %17
w: |||||

